brandFactory_export/1.Light/Lapiz boligrafo _1Light.svg

<?xml version="1.0" encoding="UTF-8"?>
<svg width="24px" height="24px" viewBox="0 0 24 24" version="1.1" xmlns="http://www.w3.org/2000/svg" xmlns:xlink="http://www.w3.org/1999/xlink">
    <title>1.Light/Lapiz boligrafo _1Light</title>
    <g id="Symbols" stroke="none" stroke-width="1" fill="none" fill-rule="evenodd">
        <g id="1.Light/Lapiz-boligrafo-_1Light" fill="#5CB615" fill-rule="nonzero">
            <path d="M21.3243697,7.73109244 L20.3294118,8.71932773 L14.8504202,3.30084034 L15.8655462,2.29579832 C18.3092437,-0.117647059 20.389916,1.38487395 21.1731092,2.14453782 C21.2672269,2.23865546 21.3680672,2.34285714 21.4521008,2.42689076 C22.2184874,3.22352941 23.7445378,5.33445378 21.3243697,7.73109244 Z M1.33445378,20.9680672 L2.62184874,22.2420168 L1.09579832,22.5210084 L1.33445378,20.9680672 Z M4.7697479,18.0537815 L2.35294118,15.6605042 L14.1478992,3.99327731 L16.5647059,6.38655462 L4.7697479,18.0537815 Z M3.80504202,22.0235294 L1.51932773,19.7579832 L1.99327731,16.692437 L6.82352941,21.4689076 L3.80504202,22.0235294 L3.80504202,22.0235294 Z M7.86218487,21.112605 L5.47226891,18.7495798 L17.2672269,7.08235294 L19.6302521,9.41848739 L7.86218487,21.112605 Z M22.1714286,1.74789916 C22.0705882,1.64705882 21.9731092,1.54621849 21.8689076,1.44537815 C20.2722689,-0.107563025 17.6705882,-0.880672269 15.1596639,1.60336134 L1.29411765,15.3176471 C1.22689076,15.3848739 1.18319328,15.4722689 1.1697479,15.5630252 C1.16638655,15.5731092 1.15630252,15.5798319 1.15630252,15.589916 L0.00672268908,23.0588235 C-0.0168067227,23.2168067 0.0369747899,23.3747899 0.151260504,23.4857143 C0.268907563,23.5966387 0.430252101,23.6436975 0.588235294,23.6168067 L7.81176471,22.292437 C7.82857143,22.292437 7.84537815,22.302521 7.86218487,22.302521 C7.99327731,22.302521 8.1210084,22.2521008 8.21512605,22.1579832 C8.22184874,22.1512605 8.22521008,22.1411765 8.23193277,22.1310924 C8.23529412,22.1277311 8.24537815,22.1277311 8.2487395,22.1243697 L22.0302521,8.42689076 C25.2336134,5.25378151 22.7092437,2.30588235 22.1714286,1.74789916 Z" id="Lapiz-boligrafo-_1Light"></path>
        </g>
    </g>
</svg>

<svg width="24" height="24" viewBox="0 0 24 24" xmlns="http://www.w3.org/2000/svg"><path d="M21.324 7.731l-.995.988-5.479-5.418 1.016-1.005c2.443-2.414 4.524-.911 5.307-.151.094.094.195.198.28.282.765.797 2.292 2.907-.129 5.304zM1.334 20.968l1.288 1.274-1.526.279.238-1.553zm3.436-2.914L2.353 15.66 14.148 3.993l2.417 2.394L4.77 18.054zm-.965 3.97l-2.286-2.266.474-3.066 4.83 4.777-3.018.555zm4.057-.911l-2.39-2.363L17.267 7.082l2.363 2.336L7.862 21.113zm14.31-19.365c-.101-.1-.199-.202-.303-.303-1.597-1.553-4.198-2.326-6.71.158L1.295 15.318a.441.441 0 00-.124.245c-.004.01-.014.017-.014.027l-1.15 7.469a.492.492 0 00.582.558l7.224-1.325c.017 0 .033.01.05.01.131 0 .259-.05.353-.144.007-.007.01-.017.017-.027.003-.003.013-.003.017-.007L22.03 8.427c3.204-3.173.68-6.121.141-6.68z" fill="#5CB615" fill-rule="nonzero"/></svg>
